!!!OTL: Exultet 2
!!!SMS: Montecassino, Archivio dell'Abbazia
**kern	**silbe
*	*LLatin
*staff11	*staff11
!M2	!M2
=1-	=1-
*clefGv2	*
*k[]	*
4F	E-
(8G	xul
8A)	.
8G	-te(t)
8G	iam
4F	an-
=2-	=2-
(8F	-ge-
8G)	.
4G	-li-
8G	-ca
(8G	tur-
8A)	.
(8A	-ba
=3-	=3-
8G)	.
4F	ce-
(8G	-lo-
8A	.
8G)	.
4F	-rum.
=4-	=4-
4F	e-
(8G	xul
8A)	.
4G	-t(e)nt
4G	di-
=5-	=5-
(8G	-vi-
4A)	.
(8A	-na
4G)	.
4F	mi-
=6-	=6-
(8G	-ste-
4A)	.
(8G	-ri-
4F)	.
4F	-a.
=7-	=7-
8F	et
8F	pro
8A	tan-
8G	-ti
8G	re-
8G	-gis
8F	vic-
(16F	-to-
16G)	.
=8-	=8-
8G	-ri-
8G	-a.
8G	tu-
8F	-ba
8G	in-
8F	-to-
(8G	-net
8A)	.
=9-	=9-
(16G	.
16A)	.
16G	.
16F	.
(8F	sa-
16G	.
8A)	.
(16G	-lu-
16A	.
16G)	.
8F	-ta-
8F	-ris.
=10-	=10-
(8G	(Gau-
8A)	.
8G	-de-
8G	-at
8G	se)
8G	tan-
4F	-tis
=11-	=11-
(8F	tel-
8G)	.
8G	-lus
8G	ir-
8G	-ra-
(16G	-di-
16F)	.
(8G	-a-
8A)	.
=12-	=12-
(8A	-ta
8G)	.
8F	ful-
(8G	-go-
8A)	.
(8G	-ri-
8F)	.
8F	-bus.
=13-	=13-
4F	et
8F	e-
4A	-ter-
8G	-ni
(8F	re-
8G)	.
=14-	=14-
4G	-gis
4G	splen-
(8G	-do-
8A)	.
(8A	-re
8G)	.
=15-	=15-
4F	lu-
(8G	-stra-
8A	.
4G)	.
4F	-ta.
=16-	=16-
8F	to-
8A	-ti-
8G	-us
8G	or-
8G	-bis
8F	se
(8F	sen-
8G)	.
=17-	=17-
8G	-ti-
8G	-at
8G	am-
8F	-mi-
(8G	-sis-
8A)	.
(16G	.
16A)	.
16G	.
16F	.
=18-	=18-
(16F	-se
16G	.
8A)	.
(16G	(ca-
16A	.
8G)	.
8F	-li-
(8E	-gi-
8F)	.
8F	-nem)
=19-	=19-
(16G	Le-
16A)	.
8G	-te-
8G	-tur
8G	et
(16G	ma-
16A)	.
(16A	-ter
16G)	.
8F	ec-
(16G	-cle-
16A)	.
=20-	=20-
(16G	-si-
16F)	.
8F	-a.
8A	tan-
8G	-ti
(16F	lu-
16G)	.
8G	-mi-
8G	-nis
16G	(a-
16G	-dor-
=21-	=21-
(16G	-na-
8A)	.
(16A	-ta)
8G)	.
8F	ful-
(16G	-go-
8A)	.
(16G	-ri-
8F)	.
8F	-bus
=22-	=22-
8F	(et)
(16G	mag-
16A)	.
8G	-nis
8G	po-
8G	-pu-
8G	-lo-
8F	-rum
(16F	(vo-
16G)	.
=23-	=23-
8G	-ci-
8G	-bus
8F	hec
(8G	au-
16A	.
16G)	.
8A	.
(8G	.
8F)	.
=24-	=24-
(8F	-la
8A)	.
(16G	re-
16A	.
8G)	.
4F	-sul-
4F	-tet)
=25-	=25-
(16G	Qua-
16A)	.
4G	prop
8G	-ter
8G	a-
8G	-stan-
8G	-ti-
8F	-bus
=26-	=26-
(8F	vo-
8G)	.
4G	-bis
(8G	fra-
8A)	.
(8A	-tres
8G)	.
=27-	=27-
4F	ka-
(8G	-ris-
8A)	.
(8G	-si-
8F)	.
4F	-mi.
=28-	=28-
4F	a[d
4A	tam
8G	mi-
8G	-ram
8G	sanc-
8G	-ti
=29-	=29-
4G	hu-
8F	-ius]
(8F	lu-
8G)	.
8G	-mi-
(8G	-nis
8A)	.
=30-	=30-
(8A	cla-
8G)	.
8F	-ri-
(8G	(ta
8A	.
8G)	.
4F	-tem)
=31-	=31-
8F	(u-
16A	-na
8G	me-
8G	-cum
8G	que-
8G	-so
8G	de-
8G	-i)
16G	om-
=32-	=32-
8G	-ni-
8F	-po-
(16F	-ten-
16G)	.
8G	-tis
8G	[mi-
16G	-se-
8F	-ri-
8G	-cor-
16F	-di-
=33-	=33-
(16G	-am
16A)	.
(16G	.
16A)	.
16G	.
8F	.
(16F	in-
16G	.
16A)	.
(16G	-vo-
16A	.
8G)	.
16F	-ca-
16F	-te]
=34-	=34-
(16G	U(t
16A)	.
8G	qui
8G	me
8G	non
8G	me-
8F	-is
(16F	me-
16G)	.
16G	-ri-
16G	-tis
=35-	=35-
8G	in-
8G	-fra
8G	le-
16G	-vi-
8G	-ta-
8F	-rum)
(16F	nu-
16G)	.
8G	-me-
16G	-rum
=36-	=36-
16G	dig-
16G	-na-
8G	-tus
(16G	es
8A)	.
(16A	ag-
8G)	.
16F	-g[re-
(16G	-ga-
16A	.
8G)	.
16F	-re]
=37-	=37-
4A	lu-
4G	-mi-
4F	-nis
4G	(su-
=38-	=38-
4G	-i
(8G	gra-
8F)	.
(8G	-ti-
8A)	.
(8A	-am
8G)	.
=39-	=39-
4F	in-
(8G	-fun-
8A	.
4G)	.
4F	-dens)
=40-	=40-
4A	(ce-
8G	-re-
8G	-i)
4G	hu-
8F	-ius
(8F	lau-
=41-	=41-
8G)	.
8G	-dem
8F	(im-
(8G	-ple-
8A)	.
(8G	.
16A)	.
16G	.
8F	.
=42-	=42-
(16F	-re
16G	.
8A)	.
(16G	pre-
8A	.
8G)	.
8F	-ci-
(16E	-pi-
8F)	.
8F	-at)
=43-	=43-
(8G	Per
8A)	.
8G	do-
8G	-mi-
4F	-num
(8F	(no-
8G)	.
=44-	=44-
4G	-strum
8G	ie-
8F	-sum)
(8F	chri-
8G)	.
8G	-stum
(8G	fi-
=45-	=45-
8A)	.
(8A	-li-
8G)	.
8F	-um
(8G	su-
8A	.
8G)	.
8F	-um.
=46-	=46-
8F	vi-
8A	-ven-
8G	-tem
(16F	se-
16G)	.
8G	-cum
8G	at-
8G	-que
8F	reg-
=47-	=47-
(16F	-nan-
16G)	.
8G	-tem
8G	in
8G	u-
8F	-ni-
(8F	-ta-
8G)	.
8G	-te
=48-	=48-
8G	spi-
(16G	-ri-
16F)	.
(16G	-tus
16A)	.
(16A	(sanc-
16G)	.
8F	-ti
(16G	de-
16A	.
8G)	.
8F	-um)
=49-	=49-
8F	per
(16F	om-
16G)	.
8G	-ni-
8F	-a
4G	se-
4F	-cu-
=50-	=50-
(16G	-la
8A)	.
(16G	.
8A)	.
16G	.
8F	.
(16F	se-
16G	.
8A)	.
(16G	-cu-
16A	.
16G)	.
=51-	=51-
4F	-lo-
4F	-rum.
4E	A-
(8E	-me(n)
8F)	.
=52-	=52-
4F	Do-
8G	-mi-
(8B	-nus
4A)	.
(8G	vo-
8F)	.
=53-	=53-
(8G	-bi-
8A)	.
4F	-scum.
8F	Et
(8G	cum
8A)	.
8B	spi-
=54-	=54-
(8B	-ri-
8A)	.
(8G	-tu
8F)	.
(8G	tu-
8A	.
8G)	.
8F	-o.
=55-	=55-
(16F	Sur-
16G	.
8A)	.
(8B	.
8A)	.
4G	-(sum
(8F	cor-
8G)	.
=56-	=56-
(8G	-da).
8F)	.
4F	Ha-
(8G	-be-
8A)	.
4A	-mus
=57-	=57-
4A	ad
4B	do-
(8G	-mi-
8A)	.
4G	-(num)
=58-	=58-
(16G	(Gra-
16A)	.
(16G	-ti-
16F)	.
8F	-as)
8A	a-
(16B	-ga-
16A)	.
(16G	-mus
16A)	.
(16G	do-
16A	.
8B)	.
=59-	=59-
8A	-mi-
(16G	-no
16A)	.
16G	.
16F	.
(16F	de-
16G)	.
8A	-o
(16G	no-
16A)	.
8G	-stro.
(16F	Dig-
16G	.
=60-	=60-
16A)	.
16B	.
8A	-num
8A	(et
8B	iu-
(8G	-stum)
8A)	.
(8G	est.
8F)	.
=61-	=61-
(16F	Ve-
16G	.
8A)	.
(16F	-re
16G	.
8F)	.
8G	qui-
8A	-a
8B	dig-
8B	-num
=62-	=62-
(16A	et
16B)	.
(16A	iu-
16G)	.
(16F	-stum
16G)	.
4G	est.
8F	per
8G	chri-
8F	-stum
=63-	=63-
(16G	do-
16A)	.
(16G	.
16A)	.
16G	.
16F	.
(16F	-mi-
16G	.
16A)	.
(16G	-num
16A	.
16G)	.
8F	no-
8F	-strum.
=64-	=64-
(8G	In-
8A)	.
4G	-vi-
8G	(si
4G	-bi-
8G	-lem)
=65-	=65-
4G	de-
8F	-um
(8F	pa-
8G)	.
8G	-trem
(8G	om-
8A)	.
=66-	=66-
(8A	-ni-
8G)	.
4F	(po
(8G	-ten-
8A	.
8G)	.
8F	-te)m.
=67-	=67-
8F	fi-
8F	-li-
8A	-um-
8G	-que
(16F	e-
16G)	.
8G	-ius
8G	u-
8F	-ni-
=68-	=68-
(8F	-ge-
8G)	.
8G	-ni-
8G	-tum
8G	do-
8G	-mi-
8F	-(num)
(16F	no-
16G)	.
=69-	=69-
(16G	-strum.
8A)	.
(16A	ihe-
8G)	.
8F	-sum
(8G	chri-
8A	.
8G)	.
8F	-stum
=70-	=70-
16A	to-
16G	-to
16G	cor-
16G	-dis
16G	ac
(16G	men-
16A)	.
(16A	-tis
16G)	.
16F	af-
(16G	-fec-
16A	.
8G)	.
8F	-tu
=71-	=71-
8F	et
4A	vo-
8G	-cis
4F	mi-
8G	-ste-
8F	-ri-
=72-	=72-
(16G	-o
16A	.
16G	.
16A)	.
16G	.
16F	.
(16F	per-
16G	.
8A)	.
(16G	-so-
16A	.
8G)	.
16F	-na-
16F	-re
=73-	=73-
(16G	Qui
16A)	.
4G	pro
4G	no-
8G	-bis
8G	e-
8G	-ter-
=74-	=74-
8G	-no
8G	pa-
8G	-tri
8F	a-
(8F	-de
8G)	.
(8G	de-
8A)	.
=75-	=75-
(8A	-bi-
8G)	.
8F	-tum
(8G	sol-
8A	.
8G)	.
4F	-vit.
=76-	=76-
8F	et
8A	ve-
8G	-te-
8G	-ris
8G	pi-
8G	-a-
8G	-cu-
(16G	-li
16A)	.
=77-	=77-
(16A	cau-
16G)	.
8F	-ti-
(16G	-o-
16A	.
8G)	.
8F	-nem
8G	pi-
8G	-o
8F	de-
=78-	=78-
(16G	-ter-
16A)	.
(16G	.
16A)	.
16G	.
16F	.
(16F	-sit
16G	.
16A)	.
(16G	cru-
16A	.
16G)	.
8F	-o-
8F	-re.
=79-	=79-
(8G	Hec
8A)	.
4G	sunt
4G	e-
(8G	-nim
8F)	.
=80-	=80-
(8G	fe-
4A)	.
(8A	-sta
4G)	.
4F	pa-
=81-	=81-
(8G	-scha-
4A)	.
(8G	-li-
4F)	.
4F	-a.
=82-	=82-
8F	in
4F	qui-
4F	-bus
8A	ve-
4G	-rus
=83-	=83-
4G	il-
4G	-le
(8G	ag-
8A)	.
(8A	-nus
8G)	.
=84-	=84-
4F	oc-
(8G	-ci-
8A)	.
(8G	-di-
8F)	.
4F	-tur.
=85-	=85-
4F	e-
4A	-ius-
8G	-que
(8F	san-
8G)	.
8G	-guis
=86-	=86-
8G	po-
8F	-sti-
(8G	-bus
8A	.
8G	.
8A)	.
8G	.
8F	.
=87-	=87-
8A	con-
(8G	-se-
8A	.
8G)	.
4F	-cra
4F	tur.
=88-	=88-
(8G	In
8A)	.
8G	qui-
8G	-bus
8G	pri-
8G	-mum
8G	pa-
8F	-tres
=89-	=89-
(16F	no-
16G)	.
8G	-stros
(16G	fi-
16A)	.
(16A	-li-
16G)	.
16F	-os
(16G	his-
16A)	.
(16G	-ra-
16F)	.
16F	-hel
8F	e-
=90-	=90-
8A	-duc-
8G	-tos
8G	de
8F	e-
(8F	-gyp-
8G)	.
(8G	-to
8A)	.
=91-	=91-
(8A	ru-
8G)	.
8F	-brum
(8G	ma-
16A	.
16G)	.
8F	-re
8A	sic-
8G	-co
=92-	=92-
8F	ve-
(16F	-sti-
16G)	.
8G	-gi-
8G	-o
8F	tran-
(16G	-si-
16A	.
16G	.
16A)	.
16G	.
16F	.
=93-	=93-
8A	-re
(8G	fe-
8A	.
8G)	.
4F	-ci-
4F	-sti.
=94-	=94-
8G	Hec
(8G	i-
8A)	.
(8A	-gi-
8G)	.
8F	-tur
(16G	nox
16A	.
8G)	.
=95-	=95-
4F	est.
4F	que
4F	pec-
(8G	-ca-
8A)	.
=96-	=96-
(8A	-to-
8G)	.
8F	-rum
(8G	te-
8A)	.
(8G	-ne-
8F)	.
8F	-bras
=97-	=97-
4F	co-
4A	-lum-
8G	-ne
4G	il-
8G	-lu-
=98-	=98-
8F	-mi-
8G	-na-
8F	-ti-
(8G	-o-
8A	.
8G	.
8A)	.
8G	.
=99-	=99-
8F	.
8A	-ne
(8G	pur-
8A	.
8G)	.
8F	-ga-
4F	-vit
=100-	=100-
32B	Hec
32B	.
32A	.
32G	.
16F	.
(16G	nox
16A	.
16G)	.
8F	est
8F	que
8A	ho-
8G	-di-
8G	-e
=101-	=101-
8G	per
8G	u-
8G	-ni-
8G	-ver-
8F	-sum
(16F	mun-
16G)	.
8G	-dum
8G	in
=102-	=102-
(16G	chri-
8A)	.
(16A	-sto
8G)	.
8F	cre-
(8G	-den-
8A	.
8G)	.
8F	-tes
=103-	=103-
8F	a
8A	vi-
8G	-ti-
8G	-us
8G	se-
(16G	-cu-
16F)	.
(16G	-li
16A)	.
(16A	se-
16G)	.
=104-	=104-
8F	-gre-
(16G	-ga-
16A	.
8G)	.
8F	-tos
8F	et
8F	ca-
8A	-li-
8G	-gi-
=105-	=105-
(16G	-ne
8A)	.
(16A	pec-
8G)	.
4F	-ca-
(16G	-to-
16A	.
8G)	.
8F	-rum
=106-	=106-
4A	red-
4G	-dit
(8F	gra-
8G)	.
4G	-ti-
=107-	=107-
8G	-e
8G	so-
8F	-ci-
(8G	-at
8A	.
8G	.
8A)	.
8G	.
=108-	=108-
8F	.
4A	sanc-
(8G	-ti-
8A	.
8G)	.
8F	-ta-
8F	-ti.
=109-	=109-
32B	Hec
16A	.
32G	.
8F	.
(8G	nox
8A	.
8G)	.
8F	est.
(16F	in
16G)	.
8G	qu(a
=110-	=110-
8G	de-
8A	struc)
8G	-tis
(8G	vin-
4A)	.
(8A	-cu-
8G)	.
=111-	=111-
4F	-lis
(8G	mor-
8A	.
4G)	.
4F	-tis
=112-	=112-
4A	chri-
8G	-stus
4F	ab
(8F	in-
8G)	.
8G	-fe-
=113-	=113-
4G	-ris
4F	vic-
(16G	.
8A	.
16G	.
8A)	.
16G	.
16F	.
=114-	=114-
4A	-tor
(8G	(a-
8A)	.
(8G	-scen-
8F)	.
4F	-dit)
=115-	=115-
(8G	Ni-
8A)	.
4G	-chil
4G	e-
4G	-nim
=116-	=116-
4G	no-
4G	-bis
(8G	na-
8A)	.
(8A	-sci
8G)	.
=117-	=117-
4F	pro-
(8G	-fu-
8A)	.
(8G	(e
8F)	.
4F	-rat)
=118-	=118-
4F	ni-
4F	-si
4G	re-
4F	-di-
=119-	=119-
(8G	-mi
8A	.
8G	.
8A)	.
8G	.
8F	.
4A	pro-
=120-	=120-
(8G	-fu-
8A	.
4G)	.
4F	-is-
4F	-set
=121-	=121-
(8G	O
8A)	.
8G	mi-
8G	-ra
8G	cir-
8F	-ca
(8F	nos
8G)	.
=122-	=122-
8G	tu-
8G	-e
8G	pi-
8G	-e-
(8G	-ta-
8A)	.
(8A	-tis
8G)	.
=123-	=123-
4F	di-
(8G	-gna-
8A)	.
(8G	-ti-
8F)	.
4F	-o.
=124-	=124-
4A	o
4G	i-
8G	-ne-
8F	-sti-
(8F	-ma-
8G)	.
=125-	=125-
8G	-bi-
8G	-lis
8G	di-
8G	-lec-
(8G	-ti-
8F)	.
(8G	-o
8A)	.
=126-	=126-
(8A	ca-
8G)	.
4F	-ri-
(8G	-ta-
8A	.
8G)	.
8F	-tis
=127-	=127-
8F	ut
8A	ser-
8G	-vum
8F	re-
(8F	-di-
8G)	.
8G	-me-
8G	-res
=128-	=128-
8G	fi-
8F	-li-
(8G	-um
8A	.
8G	.
8A)	.
8G	.
8F	.
=129-	=129-
4A	tra-
(8G	-di-
8A	.
4G)	.
8F	-di-
8F	-sti.
=130-	=130-
(8G	O
8A)	.
8G	cer-
8G	-te
8G	ne-
8F	-ces-
=131-	=131-
(8F	-sa-
8G)	.
8G	-ri-
8G	-um
8G	a-
8G	-de
(8G	pec-
8F)	.
=132-	=132-
(16F	-ca-
16G	.
8A)	.
(16G	-tum
16A)	.
(16A	.
16G)	.
8F	no-
(16G	strum
16A	.
8G)	.
8F	-que
=133-	=133-
8F	quod
8G	chri-
8F	-sti
(8G	mor-
8A	.
8G	.
8A)	.
8G	.
=134-	=134-
8F	.
8A	-te
(8G	de-
8A	.
8G)	.
8F	-le-
(16E	-tum
16F)	.
8F	est.
=135-	=135-
(8G	O
8A)	.
(8A	fe-
8G)	.
8F	-lix
(16G	cul-
16A	.
8G)	.
8F	-pa
=136-	=136-
8F	que
8A	ta-
8G	-lem
4G	ac
4G	tan-
8F	-tum
=137-	=137-
(8F	me-
8G)	.
8G	-ru-
8G	-it
8G	ha-
8F	-be-
(8G	-re
8A	.
=138-	=138-
16G	.
16A)	.
16G	.
16F	.
8A	re-
(8G	-demp-
8A	.
8G)	.
8F	-to-
8F	-r(em)
=139-	=139-
16G	O
(16G	ve-
16A)	.
(16A	-re
16G)	.
16F	be-
(16G	-a-
16A)	.
(16G	-ta
16F)	.
8F	nox
8F	que
8A	so-
=140-	=140-
8G	-la
(8F	me-
8G)	.
8G	-ru-
8G	-it
8G	sci-
(8G	-re
8F)	.
=141-	=141-
(16G	tem-
8A)	.
(16A	-pus.
8G)	.
8F	et
(16G	ho-
16A	.
8G)	.
4F	-ram
=142-	=142-
4F	in
4A	qua
4G	chri-
4G	-stus
=143-	=143-
8F	ab
8G	in-
8F	-fe-
(8G	-ris.
8A	.
8G	.
8A)	.
8G	.
=144-	=144-
8F	.
8A	re-
(8G	-sur-
8A	.
8G)	.
4F	-re-
8F	-xit.
=145-	=145-
16B	Hec
16A	.
16G	.
8F	.
(16G	nox
8A	.
8G)	.
8F	(est)
8G	de
8F	qua
=146-	=146-
(16G	scrip-
16A)	.
(16G	-tum
16F)	.
8F	est.
8F	et
8A	nox
8G	ut
(8F	di-
8G)	.
=147-	=147-
8G	-es
(16G	il-
8A)	.
(16A	-lu-
16G)	.
8F	-mi-
(16G	-na-
8A)	.
(16G	-bi-
8F)	.
16F	-tur.
=148-	=148-
8F	et
(8F	nox
8G)	.
8G	il-
8G	-lu-
8G	-mi-
8G	-na-
8G	-ti-
=149-	=149-
8F	-o
(16F	me-
16G)	.
8G	-a.
8G	in
8F	de-
(16G	-li-
16A	.
16G	.
16A)	.
16G	.
16F	.
=150-	=150-
4A	-ci-
(8G	-is
8A	.
8G)	.
8F	me-
4F	-is.
=151-	=151-
(8G	(Hu-
8A)	.
4G	-ius
8G	i-
4G	-gi-
8G	-tur)
=152-	=152-
8G	sanc-
8G	-ti-
(8G	-fi-
8F)	.
(8G	-ca-
8A)	.
(8A	-ti-
8G)	.
=153-	=153-
4F	-o
(8G	noc-
8A	.
4G)	.
4F	-tis
=154-	=154-
4A	fu-
4F	-gat
2r	.
=155-	=155-
(8G	sce-
8A)	.
(8G	-le-
8F)	.
4F	-ra.
(8A	cul-
8G)	.
=156-	=156-
4F	-pas
(8G	la-
8A	.
4G)	.
4F	-vat.
=157-	=157-
8F	et
8A	re-
8G	-di-
8G	-mit
8G	in-
8F	-no-
(16G	-cen-
16A	.
16G	.
16A)	.
=158-	=158-
16G	.
16F	.
8A	-ti-
(16G	-am
16A	.
8G)	.
4F	lap-
4F	-sis
=159-	=159-
8A	(me-
(8A	-stis)
8G)	.
(16G	le-
16F)	.
(16G	-ti-
8A)	.
(16G	-ti-
8F)	.
8F	-am.
=160-	=160-
8A	fu-
(8A	.
8G)	.
(8G	-gat
4F)	.
(8G	o-
8A)	.
=161-	=161-
(8G	-di-
8F)	.
4F	-a.
4F	con-
(8G	-cor-
8A)	.
=162-	=162-
(8A	-di-
8G)	.
8F	-am
(8G	pa-
8A	.
8G)	.
4F	-rat.
=163-	=163-
4F	et
(8G	cur-
8A	.
8G	.
8A)	.
8G	.
8F	.
=164-	=164-
4A	-bat
(4G	im-
4A	.
4G)	.
=165-	=165-
4F	-pe-
(4E	-ri-
4F)	.
4F	-a.
=166-	=166-
(8G	In
8A)	.
4G	hu-
4G	-ius
4G	i-
=167-	=167-
(8G	-gi-
8F)	.
(8G	-tur
8A)	.
(8A	noc-
8G)	.
4F	-tis
=168-	=168-
(8G	gra-
4A)	.
(8G	-ti-
4F)	.
4F	-am.
=169-	=169-
8A	su-
8G	-sci-
8G	-pe
8G	sanc-
8F	-te
(16F	pa-
16G)	.
8G	-ter
8G	in-
=170-	=170-
8G	-cen-
8F	-si
(16F	hu-
16G)	.
8G	-ius
8G	sa-
8G	-cri-
8G	-fi-
(16G	-ci-
16F)	.
=171-	=171-
(8G	-um
8A)	.
(8A	ves-
8G)	.
8F	-per-
(16G	-ti-
16A	.
8G)	.
8F	-num.
=172-	=172-
8F	quod
8A	ti-
8G	-bi
8G	in
8F	hac
(16F	ce-
16G)	.
8G	-re-
8G	-i
=173-	=173-
8G	o-
8G	-bla-
(16G	-ti-
16F)	.
(16G	-o-
16A)	.
(16A	-ne
16G)	.
8F	sol-
(16G	-lem-
16A	.
16G)	.
16F	-pni.
=174-	=174-
8F	per
8F	mi-
8F	-nis-
8A	-tro-
8G	-rum
(8F	ma-
8G)	.
8G	-nus.
=175-	=175-
8G	de
(16G	o-
16F)	.
(16G	-pe-
16A)	.
(16A	-ri-
16G)	.
8F	-bus
(16G	a-
16A	.
8G)	.
8F	-pum.
=176-	=176-
8F	sa-
8F	-cro-
8G	-sanc-
8F	-ta
(8G	red-
16A	.
8G	.
16A)	.
8G	.
=177-	=177-
8F	.
8A	-dit
(16G	ec-
16A	.
8G)	.
8F	-cle-
(8E	-si-
8F)	.
8F	-a.
=178-	=178-
(8G	(Sed
8A)	.
4G	iam)
8G	co-
4G	-lum-
8F	-ne
=179-	=179-
(8F	hu-
8G)	.
4G	-ius
(8G	pre-
8F)	.
(8G	-co-
8A)	.
=180-	=180-
(8A	-ni-
8G)	.
8F	-a
(8G	no-
8A)	.
(8G	-vi-
8F)	.
8F	-mus.
=181-	=181-
8F	quam
8F	in
8F	ho-
8A	-no-
8G	-rem
(8F	de-
8G)	.
8G	-i
=182-	=182-
8G	ru-
8G	-ti-
8F	-lans
(16G	ig-
8A	.
16G	.
8A)	.
8G	.
8F	.
=183-	=183-
4A	-nis
(8G	ac-
8A	.
4G)	.
8F	-cen-
8F	-(dit)
=184-	=184-
(4G	Qui
4A)	.
4G	li-
4G	-cet
=185-	=185-
(8G	di-
4F)	.
(8G	-vi-
4A)	.
(8A	-sus
8G)	.
=186-	=186-
4F	in
(8G	par-
8A	.
4G)	.
4F	-tes
=187-	=187-
8F	mu-
4F	-tu-
4A	-a-
8G	-ti
(8F	lu-
8G)	.
=188-	=188-
8G	-mi-
8G	-nis
8G	de-
8F	-tri-
(16G	-men-
8A	.
16G	.
8A)	.
16G	.
16F	.
=189-	=189-
4A	-ta
(8G	non
8A	.
4G)	.
8F	no-
8F	-vit.
=190-	=190-
(8G	A-
8A)	.
4G	-li-
4G	-tur
(8G	li-
8F)	.
=191-	=191-
(4G	-quan-
4A)	.
(4A	-ti-
4G)	.
=192-	=192-
4F	-bus
(8G	ce-
8A	.
4G)	.
4F	-ris
=193-	=193-
8F	quas
8F	in
8F	sub-
8A	-stan-
8G	-ti-
8G	-am
8G	pre-
8G	-ti-
=194-	=194-
16G	-o-
8G	-se
16G	hu-
8F	-ius
(16F	lam-
16G)	.
16G	.
16G	-pa-
8G	-dis
8G	a-
8F	-pis
=195-	=195-
(16G	ma-
16A	.
16G	.
16A)	.
16G	.
16F	.
8A	-ter
(16G	e-
16A	.
8G)	.
8F	xul
8F	-tat
=196-	=196-
(8G	A-
8A)	.
4G	-(pes
8G	ce-
4G	-te-
8G	-ris
=197-	=197-
4G	que)
(8G	sub-
8F)	.
(8G	-iec-
8A)	.
(8A	-ta
8G)	.
=198-	=198-
4F	sunt
(8G	ho-
8A)	.
(8G	-mi-
8F)	.
4F	-ni
=199-	=199-
4F	a-
4F	-ni-
4G	man
4F	-ti-
=200-	=200-
(8G	-bus
8A	.
8G	.
8A)	.
8G	.
8F	.
4A	an-
=201-	=201-
(8G	-te-
8A	.
4G)	.
4F	-cel-
4F	-lit
=202-	=202-
(4G	Cum
4A)	.
4G	sit
4G	mi-
=203-	=203-
8G	-ni-
8G	-ma
4G	cor-
(8G	-po-
8F)	.
(8G	-ris
8A)	.
=204-	=204-
(8A	par-
8G)	.
8F	-vi-
(8G	-ta-
8A	.
8G)	.
4F	-te
=205-	=205-
8F	in-
8A	-gen-
4G	-tes
(8F	a-
8G)	.
8G	-ni-
8G	-mos
=206-	=206-
4G	an-
4G	-gu-
(8G	-sto
8F)	.
(8G	(ver-
8A)	.
=207-	=207-
(8A	-sat
8G)	.
8F	in
(8G	pec-
8A)	.
(8G	-to-
8F)	.
8F	-re)
=208-	=208-
4A	vi-
8G	-ri-
4G	-bus
4G	in-
8F	-be-
=209-	=209-
(8F	-cil-
8G)	.
8G	-lis
8F	sed
(16G	for-
8A	.
16G	.
8A)	.
16G	.
16F	.
=210-	=210-
4A	-tis
(16G	in-
16A	.
8G)	.
8F	-ge-
(16E	-ni-
16F)	.
4F	-o.
=211-	=211-
(4G	Hec
4A)	.
4G	ex-
4G	-plo-
=212-	=212-
4G	-ra-
(8G	-ta
8F)	.
(8G	tem-
8A)	.
(8A	-po-
8G)	.
=213-	=213-
4F	-rum
(8G	vi-
8A	.
4G)	.
4F	-ces
=214-	=214-
8F	cum
8F	ca-
8A	-ni-
8G	-ti-
8G	-es
8G	pru-
8F	-i-
(8F	-no-
=215-	=215-
8G)	.
8G	-sa
(8G	y-
8F)	.
(8G	(ber)
8A)	.
(8A	-na
8G)	.
=216-	=216-
4F	po-
(8G	-su-
8A)	.
(8G	(e
8F)	.
4F	-rint)
=217-	=217-
8F	et
8F	gla-
8F	-ci-
8A	-a-
8G	-li
8G	se-
8G	-ni-
8G	-o
=218-	=218-
8G	ver-
8F	-ni
(8F	tem-
8G)	.
8G	-po-
8G	-ris
8G	im-
8G	-mo-
=219-	=219-
(16G	-de-
16F)	.
(16G	-ra-
16A)	.
(16A	-ta
8G)	.
8F	de-
(16G	-ter-
8A)	.
(16G	-se-
16F)	.
8F	-ri(nt)
=220-	=220-
8A	sta-
8G	-tim
4G	pro-
8G	-de-
8G	-un-
8G	-di
8G	ad
=221-	=221-
8F	la-
(8F	-bo-
8G)	.
4G	-rem
(16G	cu-
16A	.
16G	.
16A)	.
16G	.
16F	.
=222-	=222-
4A	-ra
(16G	suc-
16A	.
8G)	.
4F	-ce-
4F	-dit.
=223-	=223-
(8G	Di-
8A)	.
8G	-sper-
(8G	-se-
8A)	.
(8A	-que
8G)	.
8F	per
=224-	=224-
(8G	a-
8A	.
8G)	.
8F	-gros
8F	li-
8A	-bra-
8G	-tis
(8G	pau-
=225-	=225-
8A)	.
(8A	-lu-
8G)	.
8F	-lum
(8G	pen-
8A	.
8G)	.
8F	-nis.
=226-	=226-
4A	cru-
4G	-ri-
4G	-bus
4F	su-
=227-	=227-
(8G	-spen-
8A	.
8G	.
8A)	.
8G	.
8F	.
4A	-sis
=228-	=228-
(8G	in-
8A	.
4G)	.
4F	-si-
4F	-dunt.
=229-	=229-
(8G	Par-
8A)	.
4G	-tim
4G	o-
(8G	-re
8F)	.
=230-	=230-
(8G	le-
4A)	.
(8A	-ge-
4G)	.
4F	-re
=231-	=231-
(8G	flo-
4A)	.
(8G	scu
4F)	.
4F	-los
=232-	=232-
8F	o-
8F	-ne-
8A	-ra-
8G	-tis
8G	vic-
8G	-tu-
8G	-a-
8G	-li-
=233-	=233-
8F	-bus
(8F	su-
8G)	.
8F	-is.
(8G	ad
8A	.
16G	.
16A)	.
16G	.
16F	.
=234-	=234-
8A	ca-
(8G	-stra
8A	.
8G)	.
8F	re-
(8E	m(e
8F)	.
8F	-at)
=235-	=235-
(8G	(i-
8A)	.
4G	-bi-
4F	-que
(8F	a-
8G)	.
=236-	=236-
4G	-li-
4G	-e
4G	i-
4G	-ne-
=237-	=237-
4G	-sti-
4G	-ma-
(8G	-bi-
8F)	.
(8G	-li)
8A)	.
=238-	=238-
(16A	ar-
8G)	.
8F	-te
(16G	cel-
8A)	.
(8G	-lu-
8F)	.
8F	-las
8F	te-
=239-	=239-
8G	-na-
8F	-ci
(16G	glu-
8A	.
16G	.
8A)	.
8G	.
8F	.
8A	-ti-
=240-	=240-
(8G	-no
8A	.
8G)	.
8F	in-
(8E	stru
8F)	.
4F	-unt
=241-	=241-
(8G	A-
8A)	.
4G	-li-
4G	-e
4G	l(i-
=242-	=242-
4G	quan)
(8G	-ti-
8F)	.
(8G	-a
8A)	.
(8A	mel-
8G)	.
=243-	=243-
4F	-la
(8G	sti-
8A	.
4G)	.
4F	-pant
=244-	=244-
4A	a-
4G	-li-
4G	-e
4G	(ver-
=245-	=245-
(4G	-tunt)
4F)	.
(4G	flo-
4A)	.
=246-	=246-
(8A	-res
8G)	.
8F	in
(8G	ce-
8A	.
8G)	.
4F	-ram
=247-	=247-
4A	a-
4G	-li-
4G	-e
(4G	o-
=248-	=248-
4F)	.
(8G	-re
4A)	.
(8A	(na)-
4G)	.
=249-	=249-
4F	-tos
(8G	fin-
8A	.
4G)	.
4F	-gunt
=250-	=250-
8A	a-
8G	-li-
8G	-e
8G	col-
4G	-lec-
4G	-tum
=251-	=251-
8F	e
(16F	fo-
16G)	.
8G	-li-
8F	-is
(8G	nec-
8A	.
16G	.
16A)	.
16G	.
16F	.
=252-	=252-
4A	-tar
(8G	in-
8A	.
8G)	.
8F	-clu-
4F	-dunt
=253-	=253-
(4G	O
4A)	.
4G	(ve-
4G	-re)
=254-	=254-
(8G	mi-
4F)	.
(8G	-ra-
4A)	.
(8A	-bi-
8G)	.
=255-	=255-
4F	-lis
(8G	a-
8A	.
4G)	.
4F	-pis
=256-	=256-
4F	cu-
8F	-ius
8F	nec
8A	se-
8G	-xum
(8G	ma-
8A)	.
=257-	=257-
(8A	scu
8G)	.
8F	-li
(8G	vi-
8A)	.
(8G	-o-
8F)	.
8F	-lant
=258-	=258-
4A	fe-
(8A	-tus
8G)	.
8F	non
(16G	(quas-
16A	.
8G)	.
8F	-sat)
=259-	=259-
4F	(nec
4G	fi-
4F	-li-
4F	-i
=260-	=260-
8G	de-
8F	stru
(8G	-unt)
8A	.
8G	.
8A)	.
8G	.
8F	.
=261-	=261-
4A	ca-
(8G	-sti-
8A	.
8G)	.
8F	-ta-
4F	-tem
=262-	=262-
(8G	(Si-
8A)	.
8G	-cut
8G	sanc-
8G	-ta
8F	con-
(8F	-ce-
8G)	.
=263-	=263-
(8G	-pit
8F)	.
(8G	vir-
4A)	.
(4A	-go
8G)	.
=264-	=264-
4F	ma-
(8G	-ri-
8A	.
4G)	.
4F	-a)
=265-	=265-
4A	(vir-
4G	-go
(8F	pe-
8G)	.
4G	-pe-
=266-	=266-
8G	-rit
8F	et
(8G	vi)r-
8A	.
8G	.
8A)	.
8G	.
8F	.
=267-	=267-
8A	-go
(8G	pe(r)-
8A	.
8G)	.
4F	man
4F	-(sit)
=268-	=268-
8F	(O
(16G	ve-
16A)	.
(16A	-re
16G)	.
8F	be-
(16G	-a-
16A)	.
(16G	-ta
16F)	.
8F	nox
8A	que
=269-	=269-
8G	ex-
8G	-po-
8G	-li-
8G	-a-
8G	-vit
8F	e-
(16F	-gyp-
16G)	.
16G	-ti-
16G	-os
=270-	=270-
8F	di-
(16G	-ta-
16A	.
16G	.
16A)	.
16G	.
16F	.
8A	-vi)t
(16G	he-
16A	.
8G)	.
16F	-bre-
16F	-os
=271-	=271-
8A	(nox
8G	in
8G	qua
8F	ter-
(8G	-re-
8A	.
4G)	.
=272-	=272-
8F	-nis
(8F	ce-
8G)	.
8G	-le-
(16G	-sti-
16A	.
16G	.
16A)	.
8G	.
8F	.
=273-	=273-
4A	-a
(8G	iun-
8A	.
4G)	.
8F	-gun-
8F	-tur)
=274-	=274-
(8G	(O-
8A)	.
8G	-ra-
8G	-mus
8F	te
(8F	do-
4G)	.
=275-	=275-
8G	-mi-
8G	-ne
4G	ut
8G	ce-
4G	-re-
8F	-us
=276-	=276-
(8F	i-
8G)	.
4G	-ste
4G	in
4F	ho)-
=277-	=277-
(8F	(no
8G)	.
4G	-rem
4G	no-
4G	-mi-
=278-	=278-
4G	-nis
(8G	tu-
8F)	.
(8G	-i
8A)	.
(8A	con-
8G)	.
=279-	=279-
4F	-se-
(8G	-cra-
8A	.
4G)	.
4F	-tus)
=280-	=280-
8F	(ad
8A	noc-
8G	-tis
(16F	hu-
16G)	.
8G	-ius
16G	ca-
16G	-li-
(16G	-gi-
16F)	.
(16G	-nem
16A)	.
=281-	=281-
(16A	de-
16G)	.
8F	stru
(16G	-en-
16A	.
8G)	.
8F	-dam
8F	in-
8F	-de-
16G	-fi-
16F	-ci-
=282-	=282-
(16G	-ens
16A	.
16G	.
16A)	.
16G	.
16F	.
8A	per-
(16G	-se-
16A	.
8G)	.
8F	-ve-
8F	-ret)
=283-	=283-
(8G	(in
8A)	.
4G	o-
4G	-do-
4G	-rem
=284-	=284-
8G	su-
8G	-a-
(8G	-vi-
8F)	.
(8G	-ta-
8A)	.
(8A	-tis
8G)	.
=285-	=285-
4F	ac-
(8G	-cep-
8A	.
4G)	.
4F	-tus)
=286-	=286-
4F	(su-
4A	-per-
8G	-nis
8G	lu-
8G	-mi-
8G	-na-
=287-	=287-
8F	-ri-
(8G	-bus
8A	.
8G	.
8A)	.
(8G	.
8F)	.
8A	mi-
=288-	=288-
(8G	-sce-
8A	.
4G)	.
4F	-a-
4F	-tur)
=289-	=289-
(8G	Flam-
8A)	.
4G	-mam
(8F	e-
8G)	.
8G	-ius
8G	lu-
=290-	=290-
4G	-ci-
8G	-fer
8G	ma-
(8G	-tu-
8F)	.
(8G	-ti-
8A)	.
=291-	=291-
(8A	-nus
8G)	.
8F	in-
(8G	-ve-
8A)	.
(8G	-ni-
8F)	.
8F	-at
=292-	=292-
8A	il-
8G	-le
(8F	in-
8G)	.
8G	-quam
8G	lu-
4G	-ci-
=293-	=293-
8G	-(fer)
8F	qui
(8G	ne-
8A	.
8G	.
8A)	.
8G	.
8F	.
=294-	=294-
8A	-scit
(8G	oc-
8A	.
8G)	.
4F	(ca
4F	-sum)
=295-	=295-
(16G	Il-
16A)	.
8G	-le
8G	qui
(16G	re-
16F)	.
(16G	-gres-
16A)	.
(16A	-sus
16G)	.
8F	ab
(16G	in-
16A)	.
=296-	=296-
(16G	-fe-
16F)	.
8F	-ris
8F	hu-
8A	-ma-
8G	-no
(16F	ge-
16G)	.
8G	-ne-
8G	-ri
=297-	=297-
8F	se-
(16G	-re-
16A	.
16G	.
16A)	.
16G	.
16F	.
8A	-(nus)
(16G	il-
16A	.
8G)	.
16F	(-lu-
16F	-xit)
=298-	=298-
(4G	Pre-
4A)	.
4G	-ca-
4G	-mur
=299-	=299-
4G	te
4G	er-
4F	-go
(4F	do-
=300-	=300-
4G)	.
4G	-mi-
4G	-ne
4G	ut
=301-	=301-
8G	nos
8G	fa-
8G	-mu-
8F	-los
(16F	tu-
16G)	.
(16G	-os
16A)	.
(16A	om-
16G)	.
8F	-nem
=302-	=302-
(16G	cle-
16A	.
16G)	.
16F	-rum
8F	et
(8F	de-
8G)	.
(8G	-vo-
8A)	.
8A	-tis-
=303-	=303-
(8A	-si-
8G)	.
8F	-mum
(8G	po-
8A)	.
(8G	-pu-
8F)	.
8F	-lum.
=304-	=304-
8F	u-
8A	-na
4G	cum
4G	be-
4G	-a-
=305-	=305-
8G	-tis-
8G	-si-
8G	-mo
4G	pa-
(8G	-pa
4F)	.
=306-	=306-
(8G	no-
8A)	.
(8A	-stro
8G)	.
8F	pa-
(16G	-scha-
16A	.
8G)	.
8F	-le.
=307-	=307-
8F	et
8F	ar-
8F	chi
8F	-e-
8A	-pi-
8G	sco
4F	-po
=308-	=308-
(8F	no-
8G)	.
8G	-stro
(8G	dom-
8A)	.
(8A	-no
4G)	.
=309-	=309-
4F	bar-
(8G	-ba-
8A	.
4G)	.
4F	-to.
=310-	=310-
8F	et
4G	ab-
8A	-ba-
4G	-ti
(8F	no-
8G)	.
=311-	=311-
(4G	-stro
4A)	.
(4A	dom-
4G)	.
=312-	=312-
4F	-no
(8G	pe-
8A	.
4G)	.
4F	-tro
=313-	=313-
8F	[et
8A	om-
8G	-nem]
8G	hanc
8G	sanc-
8F	-tam
(8F	no-
8G)	.
=314-	=314-
8G	-stram
8G	con-
8G	-gre-
8G	-ga-
8F	-ti-
(8F	-o-
8G)	.
8G	-nem
=315-	=315-
8G	tu-
8G	-o
8G	i-
8G	nef
8G	fa
8G	-bi-
4F	-li
=316-	=316-
(8F	no-
8G)	.
8G	-mi-
8G	-ni
8G	at-
8G	-que
8G	be-
8G	-a-
=317-	=317-
8G	-ti
8G	(be-
(8G	ne)
8F)	.
(8G	dic
8A)	.
(8A	-ti
8G)	.
=318-	=318-
4F	a-
(8G	scrip
8A	.
4G)	.
4F	-tam.
=319-	=319-
4F	in
4A	his
4G	pa-
4G	-scha-
=320-	=320-
4G	-li-
4F	-bus
(8F	gau-
8G)	.
8G	-di-
8G	-is
=321-	=321-
4G	con-
4F	ser
(8F	va
8G)	.
4G	-re
=322-	=322-
4G	et
4G	cu-
4F	sto
(4G	-di-
=323-	=323-
8A	.
8G	.
4A)	.
8G	.
8F	.
4A	-re
=324-	=324-
(8G	dig-
8A	.
4G)	.
4F	n(e
4F	-ris)
=325-	=325-
(8G	Me-
8A)	.
8G	-mo-
8G	-ra-
8F	-re
(8F	do-
8G)	.
8G	-mi-
=326-	=326-
8G	-ne
8G	fa-
8G	-mu-
8F	-lum
(16F	tu-
16G)	.
16G	-um
16G	ill.
16G	.
8G	im-
=327-	=327-
(16G	-pe-
8F)	.
(16G	-ra-
8A)	.
(16A	-to-
16G)	.
8F	-rem
(16G	no-
16A	.
8G)	.
8F	-strum.
=328-	=328-
4F	et
8A	con-
4G	-su-
(8G	-l(es)
8F)	.
(8G	et
=329-	=329-
4A)	.
(4A	du-
4G)	.
4F	-ces
=330-	=330-
(4G	no-
4A	.
4G)	.
4F	-stros
=331-	=331-
8F	ut
8G	per
8A	hec
8G	pa-
8G	-sca-
8G	-li-
8F	-a
(8F	gau-
=332-	=332-
8G)	.
8G	-di-
8G	-a
8G	ex-
8G	-cel-
8G	-len-
8G	-ti-
(8G	-o-
=333-	=333-
8F)	.
(16G	-res
16A)	.
(16A	e-
16G)	.
8F	-os
(16G	fa-
8A)	.
(16G	-ci-
8F)	.
8F	-as.
=334-	=334-
8F	(et
8A	se)m-
8G	-per
8F	vic-
(8F	-to-
8G)	.
8G	-ri-
8G	-am
=335-	=335-
(16G	de
8F)	.
(16G	ce-
8A)	.
(16A	-lo
8G)	.
8F	con-
(16G	-ce-
16A	.
16G)	.
8F	-das.
=336-	=336-
8A	glo-
(16G	-ri-
16A)	.
(16A	-a
16G)	.
8F	mul-
(16G	-ti-
16A)	.
(16G	-pli-
16F)	.
4F	-ces.
=337-	=337-
8A	le-
(8G	-ti-
8A)	.
(8A	-ti-
8G)	.
8F	-am
(8G	mu-
8A)	.
=338-	=338-
(8G	-ne-
8F)	.
8F	-res
8A	ho-
(8G	-no-
8A)	.
(8A	-[re]
8G)	.
=339-	=339-
4F	e-
(8G	xal
8A	.
4G)	.
4F	-tes.
=340-	=340-
8F	et
8F	e-
8G	-o-
8G	-rum
8F	e-
8G	-xer-
4F	-ci-
=341-	=341-
(8G	-tum
8A	.
8G	.
8A)	.
8G	.
8F	.
4A	u-
=342-	=342-
(8G	-ni-
8A	.
4G)	.
4F	-ver-
4F	-sum.
=343-	=343-
(8G	et
8A)	.
8G	his
8G	qui
8G	of-
8G	-fe-
4F	-runt
=344-	=344-
(8F	ti-
8G)	.
8G	-bi
8G	hoc
8G	sa-
(16G	-cri-
16F)	.
(16G	-fi-
16A)	.
=345-	=345-
(16A	[ci
16G)	.
4F	-um]
(8G	lau-
8A	.
4G)	.
8F	-dis
=346-	=346-
4A	pre-
4G	-mi-
4G	-a
4G	e-
=347-	=347-
4F	-ter-
(8G	-na
8A	.
8G	.
8A)	.
8G	.
8F	.
=348-	=348-
4A	lar-
(8G	-gi-
8A	.
4G)	.
8F	-a-
8F	-ris.
=349-	=349-
(8G	Per
8A)	.
8G	do-
8G	-mi-
8F	-num
(8F	no-
8G)	.
8G	-strum
=350-	=350-
4G	ihe-
4F	-sum
(4F	chri-
4G)	.
=351-	=351-
(8G	-stum
8F)	.
(8G	fi-
8A)	.
(8A	-li-
8G)	.
4F	-um
=352-	=352-
(4G	tu-
4A	.
4G)	.
4F	-um
=353-	=353-
8F	qui
8A	te-
8G	-cum
8G	vi-
8G	-vit
8F	et
(8F	reg-
8G)	.
=354-	=354-
8G	-nat.
8G	in
8G	u-
8F	-ni-
(8F	-ta-
8G)	.
4G	-te
=355-	=355-
8G	spi-
(8G	-ri-
8F)	.
(8G	-tus
8A)	.
(8A	sanc-
4G)	.
=356-	=356-
4F	-ti
(8G	de-
8A	.
4G)	.
4F	-us
=357-	=357-
4F	per
4G	om-
4G	-ni-
4F	-a
=358-	=358-
8G	se-
4F	-cu-
(8G	-la
4A	.
8G	.
8A)	.
=359-	=359-
4G	.
8F	.
4A	se-
(8G	-cu-
8A	.
8G)	.
=360-	=360-
4F	-lo-
4F	-rum.
4r	A-
4r	-MEN
=361-	=361-
1r	.
=362-	=362-
1r	.
=363-	=363-
1r	.
=364-	=364-
1r	.
=365-	=365-
1r	.
=366-	=366-
1r	.
=367-	=367-
1r	.
=368-	=368-
1r	.
=369-	=369-
1r	.
=370-	=370-
1r	.
=371-	=371-
1r	.
=372-	=372-
1r	.
=373-	=373-
1r	.
=374-	=374-
1r	.
=375-	=375-
1r	.
=376-	=376-
1r	.
==	==
*-	*-
!!!hum2abc: -p "%%nostems" -M none
!!!ENC: Elsa De Luca
!!!RWG: Rhythms and barlines are for alignment only, not found in source.
!!!YEC: Copyright 2009, Elsa De Luca
!!!title: @{OTL}, @{SMS}
